1-js/08-prototypes/02-function-prototype/function-prototype-constructor.svg

<?xml version="1.0" encoding="UTF-8"?>
<svg width="449px" height="73px" viewBox="0 0 449 73" version="1.1" xmlns="http://www.w3.org/2000/svg" xmlns:xlink="http://www.w3.org/1999/xlink">
    <!-- Generator: sketchtool 61.2 (101010) - https://sketch.com -->
    <title>function-prototype-constructor.svg</title>
    <desc>Created with sketchtool.</desc>
    <g id="inheritance" stroke="none" stroke-width="1" fill="none" fill-rule="evenodd">
        <g id="function-prototype-constructor.svg">
            <rect id="Rectangle-1" stroke="#E8C48E" stroke-width="2" fill="#FFF9EB" x="233" y="23" width="170" height="28"></rect>
            <rect id="Rectangle-1-Copy-2" stroke="#E8C48E" stroke-width="2" fill="#FFF9EB" x="10" y="23" width="108" height="28"></rect>
            <text id="Rabbit" font-family="PTMono-Regular, PT Mono" font-size="14" font-weight="normal" fill="#8A704D">
                <tspan x="9" y="15">Rabbit</tspan>
            </text>
            <path id="Line-Copy" d="M218,25.5 L232,32.5 L218,39.5 L218,33.5 L101,33.5 L101,31.5 L218,31.5 L218,25.5 Z" fill="#EE6B47" fill-rule="nonzero"></path>
            <path id="Line-Copy-2" d="M133,36.5 L133,42.5 L249,42.5 L249,44.5 L133,44.5 L133,50.5 L119,43.5 L133,36.5 Z" fill="#EE6B47" fill-rule="nonzero"></path>
            <text id="prototype" font-family="PTMono-Regular, PT Mono" font-size="14" font-weight="normal" fill="#8A704D">
                <tspan x="20" y="35">prototype</tspan>
            </text>
            <text id="constructor" font-family="PTMono-Regular, PT Mono" font-size="14" font-weight="normal" fill="#8A704D">
                <tspan x="259" y="47">constructor</tspan>
            </text>
            <text id="default-&quot;prototype&quot;" font-family="PTMono-Regular, PT Mono" font-size="14" font-weight="normal" fill="#8A704D">
                <tspan x="234.2" y="15">default "prototype"</tspan>
            </text>
        </g>
    </g>
</svg>

<svg xmlns="http://www.w3.org/2000/svg" width="449" height="73" viewBox="0 0 449 73"><defs><style>@import url(https://fonts.googleapis.com/css?family=Open+Sans:bold,italic,bolditalic%7CPT+Mono);@font-face{font-family:&apos;PT Mono&apos;;font-weight:700;font-style:normal;src:local(&apos;PT MonoBold&apos;),url(/font/PTMonoBold.woff2) format(&apos;woff2&apos;),url(/font/PTMonoBold.woff) format(&apos;woff&apos;),url(/font/PTMonoBold.ttf) format(&apos;truetype&apos;)}</style></defs><g id="inheritance" fill="none" fill-rule="evenodd" stroke="none" stroke-width="1"><g id="function-prototype-constructor.svg"><path id="Rectangle-1" fill="#FFF9EB" stroke="#E8C48E" stroke-width="2" d="M233 23h170v28H233z"/><path id="Rectangle-1-Copy-2" fill="#FFF9EB" stroke="#E8C48E" stroke-width="2" d="M10 23h108v28H10z"/><text id="Rabbit" fill="#8A704D" font-family="PTMono-Regular, PT Mono" font-size="14" font-weight="normal"><tspan x="9" y="15">Rabbit</tspan></text><path id="Line-Copy" fill="#EE6B47" fill-rule="nonzero" d="M218 25.5l14 7-14 7v-6H101v-2h117v-6z"/><path id="Line-Copy-2" fill="#EE6B47" fill-rule="nonzero" d="M133 36.5v6h116v2H133v6l-14-7 14-7z"/><text id="prototype" fill="#8A704D" font-family="PTMono-Regular, PT Mono" font-size="14" font-weight="normal"><tspan x="20" y="35">prototype</tspan></text><text id="constructor" fill="#8A704D" font-family="PTMono-Regular, PT Mono" font-size="14" font-weight="normal"><tspan x="259" y="47">constructor</tspan></text><text id="default-&quot;prototype&quot;" fill="#8A704D" font-family="PTMono-Regular, PT Mono" font-size="14" font-weight="normal"><tspan x="234.2" y="15">default &quot;prototype&quot;</tspan></text></g></g></svg>
